X: 25
T:Rambling Pitchfork
R:Jig
M:6/8
L:1/8
Q:3/8=120
K:D
E|~F3 AFF|dFF AFD|~G3 ABc|ded cAG|
FEF AFF|dFF AFD|GFG BGB|AFD D2:|
A|d2e fdf|ecA AFA|d2e fed|faf gfe|
dcd fdf|ecA AGF|~G3 BGB|AFD D2:|
